X:484
T:Polska # 484
T: efter Melker Andersson
M:3/4
L:1/16
K: G
Q: 110
|: d2(ef) gfga bgbg | a2(af) dAdf afaf | (gf)ge (cA)ce (gf)ge | (de)dB (GD)GB d4 |
(gf)ge (cA)ce (gf)ge | (de)dB (GD)GB d2B2 | (cB)cd edcB A2B2 | (cA)FA A2G2 G4 :|
|: GGGG F2D2 E2F2 | GGGG F2D2 E2F2 | GDEF GDEF GDEF
|[K:D] GABc dABc dABc |[K:G] d2(ef) (gf)ef (gf)ef | d2(ef) (gf)ef (gf)ed|
B2cd (ed)cB A2B2 | (cA)FA A2G2 G4 :|

